X:49
T:Jump at the Sun
C:John Kirkpatrick
Q:1/4=160
I:abc2nwc
M:4/4
L:1/8
K:G
|:EGB _B2=B|EGB _B2=B|eBB eBB|BAG F3|
EGB _B2=B|EGB _B2=B|eBB cBA|GAF E3:|
|:eBB gfe|fBB agf|gfe gfe|fBB c2B|eBB gfe|fBB agf|eBB cBA|GAF E3:|


